Newaita-dark/.DP/24/deadbeef-panel.svg

<svg xmlns="http://www.w3.org/2000/svg" xmlns:xlink="http://www.w3.org/1999/xlink" width="24px" height="24px" viewBox="0 0 24 24" version="1.1">
<g id="surface1">
<path style=" stroke:none;fill-rule:nonzero;fill:rgb(93.333334%,93.333334%,93.333334%);fill-opacity:1;" d="M 5.171875 3 C 5.160156 3 5.140625 3 5.125 3 C 4.671875 3.007812 4.238281 3.25 4 3.667969 C 3.84375 3.933594 3.789062 4.234375 3.828125 4.523438 L 3.828125 4.453125 L 3.828125 11.042969 C 3.789062 11.3125 3.835938 11.601562 3.984375 11.855469 L 4.011719 11.90625 C 4.320312 12.441406 4.96875 12.667969 5.542969 12.492188 C 5.695312 12.445312 5.832031 12.378906 5.953125 12.289062 L 5.910156 12.320312 L 11.109375 9.316406 L 15.859375 12.0625 L 4.484375 18.625 C 3.851562 18.992188 3.632812 19.820312 4 20.453125 C 4.363281 21.085938 5.1875 21.308594 5.824219 20.945312 L 19.1875 13.226562 C 19.617188 12.976562 19.859375 12.523438 19.859375 12.0625 C 19.859375 11.59375 19.617188 11.140625 19.1875 10.894531 L 5.910156 3.226562 L 5.953125 3.257812 C 5.824219 3.164062 5.671875 3.089844 5.515625 3.046875 C 5.402344 3.015625 5.289062 3 5.175781 3 C 5.175781 3 5.171875 3 5.171875 3 Z M 5.171875 3 "/>
</g>
</svg>

<svg xmlns="http://www.w3.org/2000/svg" width="32" height="32" viewBox="0 0 24 24"><path d="M5.176 3h-.051a1.337 1.337 0 0 0-1.293 1.52l-.008-.067v6.59c-.031.273.012.559.16.812l.028.047c.308.54.957.766 1.531.59a1.3 1.3 0 0 0 .41-.203l-.043.031 5.2-3.004 4.75 2.746L4.487 18.63a1.343 1.343 0 0 0-.492 1.824 1.343 1.343 0 0 0 1.828.488l13.367-7.714a1.35 1.35 0 0 0 0-2.332L5.911 3.227l.042.03a1.249 1.249 0 0 0-.441-.21A1.224 1.224 0 0 0 5.176 3zm0 0" fill="#bdbdbd"/></svg>
